src/images/navbar-laptop.svg

<svg height="512" viewBox="0 0 640 512" width="640" xmlns="http://www.w3.org/2000/svg"><path d="m624 416h-242.46c-.74 19.81-14.71 32-32.74 32h-60.8c-18.69 0-33.02-17.47-32.77-32h-239.23c-8.8 0-16 7.2-16 16v16c0 35.2 28.8 64 64 64h512c35.2 0 64-28.8 64-64v-16c0-8.8-7.2-16-16-16zm-48-368c0-26.4-21.6-48-48-48h-416c-26.4 0-48 21.6-48 48v336h512zm-64 272h-384v-256h384z"/></svg>

<svg aria-hidden="true" role="img" xmlns="http://www.w3.org/2000/svg" viewBox="0 0 640 512" width="640" height="512">
  <path d="M624 416H381.54c-.74 19.81-14.71 32-32.74 32H288c-18.69 0-33.02-17.47-32.77-32H16c-8.8 0-16 7.2-16 16v16c0 35.2 28.8 64 64 64h512c35.2 0 64-28.8 64-64v-16c0-8.8-7.2-16-16-16zM576 48c0-26.4-21.6-48-48-48H112C85.6 0 64 21.6 64 48v336h512V48zm-64 272H128V64h384v256z"/>
</svg>
